telma/img/buttons/base-plane/Build.svg

<?xml version="1.0" encoding="UTF-8" standalone="no"?>
<!-- Created with Inkscape (http://www.inkscape.org/) -->
<svg
   xmlns:dc="http://purl.org/dc/elements/1.1/"
   xmlns:cc="http://creativecommons.org/ns#"
   xmlns:rdf="http://www.w3.org/1999/02/22-rdf-syntax-ns#"
   xmlns:svg="http://www.w3.org/2000/svg"
   xmlns="http://www.w3.org/2000/svg"
   xmlns:xlink="http://www.w3.org/1999/xlink"
   xmlns:sodipodi="http://sodipodi.sourceforge.net/DTD/sodipodi-0.dtd"
   xmlns:inkscape="http://www.inkscape.org/namespaces/inkscape"
   width="600"
   height="600"
   id="svg2"
   sodipodi:version="0.32"
   inkscape:version="0.46"
   version="1.0"
   sodipodi:docname="Build.svg"
   inkscape:output_extension="org.inkscape.output.svg.inkscape"
   inkscape:export-filename="D:\Documents and Settings\Маша\Рабочий стол\poslednie\im_29.png"
   inkscape:export-xdpi="4.8006859"
   inkscape:export-ydpi="4.8006859">
  <defs
     id="defs4">
    <linearGradient
       inkscape:collect="always"
       id="linearGradient4382">
      <stop
         style="stop-color:#00b1ff;stop-opacity:1;"
         offset="0"
         id="stop4384" />
      <stop
         style="stop-color:#00b1ff;stop-opacity:0;"
         offset="1"
         id="stop4386" />
    </linearGradient>
    <linearGradient
       inkscape:collect="always"
       id="linearGradient4374">
      <stop
         style="stop-color:#ff002d;stop-opacity:1;"
         offset="0"
         id="stop4376" />
      <stop
         style="stop-color:#ff002d;stop-opacity:0;"
         offset="1"
         id="stop4378" />
    </linearGradient>
    <linearGradient
       inkscape:collect="always"
       id="linearGradient4366">
      <stop
         style="stop-color:#7f8eb7;stop-opacity:1;"
         offset="0"
         id="stop4368" />
      <stop
         style="stop-color:#7f8eb7;stop-opacity:0;"
         offset="1"
         id="stop4370" />
    </linearGradient>
    <linearGradient
       inkscape:collect="always"
       id="linearGradient3267">
      <stop
         style="stop-color:#ff0000;stop-opacity:1;"
         offset="0"
         id="stop3269" />
      <stop
         style="stop-color:#ff0000;stop-opacity:0;"
         offset="1"
         id="stop3271" />
    </linearGradient>
    <linearGradient
       id="linearGradient3253">
      <stop
         style="stop-color:#ff0000;stop-opacity:1;"
         offset="0"
         id="stop3255" />
      <stop
         style="stop-color:#ff0000;stop-opacity:0;"
         offset="1"
         id="stop3257" />
    </linearGradient>
    <linearGradient
       inkscape:collect="always"
       xlink:href="#linearGradient3253"
       id="linearGradient3261"
       x1="-74.741104"
       y1="-86.035858"
       x2="91.101135"
       y2="-163.68266"
       gradientUnits="userSpaceOnUse" />
    <linearGradient
       id="linearGradient4618">
      <stop
         style="stop-color:#e3d85d;stop-opacity:0.77865613;"
         offset="0"
         id="stop4620" />
      <stop
         style="stop-color:#ffffff;stop-opacity:0;"
         offset="1"
         id="stop4622" />
    </linearGradient>
    <linearGradient
       id="linearGradient3176">
      <stop
         id="stop3178"
         offset="0"
         style="stop-color:#ff0000;stop-opacity:1;" />
      <stop
         id="stop3180"
         offset="1"
         style="stop-color:#00d63b;stop-opacity:0;" />
    </linearGradient>
    <linearGradient
       id="linearGradient3170">
      <stop
         style="stop-color:#ff0000;stop-opacity:1;"
         offset="0"
         id="stop3172" />
      <stop
         style="stop-color:#00d63b;stop-opacity:0;"
         offset="1"
         id="stop3174" />
    </linearGradient>
    <linearGradient
       id="linearGradient3164">
      <stop
         id="stop3166"
         offset="0"
         style="stop-color:#ff0000;stop-opacity:1;" />
      <stop
         id="stop3168"
         offset="1"
         style="stop-color:#00d63b;stop-opacity:0;" />
    </linearGradient>
    <linearGradient
       id="linearGradient5422">
      <stop
         style="stop-color:#d30000;stop-opacity:1;"
         offset="0"
         id="stop5424" />
      <stop
         style="stop-color:#ff0000;stop-opacity:0;"
         offset="1"
         id="stop5426" />
    </linearGradient>
    <inkscape:perspective
       sodipodi:type="inkscape:persp3d"
       inkscape:vp_x="0 : 526.18109 : 1"
       inkscape:vp_y="6.1230318e-14 : 1000 : 0"
       inkscape:vp_z="744.09448 : 526.18109 : 1"
       inkscape:persp3d-origin="372.04724 : 350.78739 : 1"
       id="perspective10" />
    <linearGradient
       inkscape:collect="always"
       xlink:href="#linearGradient3253"
       id="linearGradient3454"
       gradientUnits="userSpaceOnUse"
       x1="-74.741104"
       y1="-86.035858"
       x2="91.101135"
       y2="-163.68266" />
    <linearGradient
       inkscape:collect="always"
       xlink:href="#linearGradient3267"
       id="linearGradient3456"
       gradientUnits="userSpaceOnUse"
       gradientTransform="matrix(4.9810849,0.3788437,-5.1235048,0.5090201,259.47826,252.87199)"
       x1="123.15675"
       y1="130.17917"
       x2="131.75237"
       y2="121.43824" />
    <linearGradient
       inkscape:collect="always"
       xlink:href="#linearGradient4366"
       id="linearGradient4372"
       x1="480.97656"
       y1="320.22641"
       x2="420.66476"
       y2="320.22641"
       gradientUnits="userSpaceOnUse" />
    <linearGradient
       inkscape:collect="always"
       xlink:href="#linearGradient4374"
       id="linearGradient4380"
       x1="234.10471"
       y1="93.739441"
       x2="128.51799"
       y2="95.882301"
       gradientUnits="userSpaceOnUse" />
    <linearGradient
       inkscape:collect="always"
       xlink:href="#linearGradient4382"
       id="linearGradient4388"
       x1="234.10472"
       y1="103.47159"
       x2="128.39561"
       y2="104.18587"
       gradientUnits="userSpaceOnUse" />
  </defs>
  <sodipodi:namedview
     id="base"
     pagecolor="#ffffff"
     bordercolor="#666666"
     borderopacity="1.0"
     gridtolerance="10000"
     guidetolerance="10"
     objecttolerance="10"
     inkscape:pageopacity="0.0"
     inkscape:pageshadow="2"
     inkscape:zoom="0.77"
     inkscape:cx="67.532468"
     inkscape:cy="300"
     inkscape:document-units="px"
     inkscape:current-layer="layer1"
     showgrid="false"
     showguides="true"
     inkscape:showpageshadow="false"
     inkscape:window-width="1029"
     inkscape:window-height="676"
     inkscape:window-x="189"
     inkscape:window-y="245"
     showborder="true">
    <inkscape:grid
       type="xygrid"
       visible="true"
       enabled="true"
       id="grid2393" />
  </sodipodi:namedview>
  <metadata
     id="metadata7">
    <rdf:RDF>
      <cc:Work
         rdf:about="">
        <dc:format>image/svg+xml</dc:format>
        <dc:type
           rdf:resource="http://purl.org/dc/dcmitype/StillImage" />
      </cc:Work>
    </rdf:RDF>
  </metadata>
  <g
     inkscape:label="Layer 1"
     inkscape:groupmode="layer"
     id="layer1">
    <rect
       ry="90"
       rx="90"
       y="10.602222"
       x="11.58176"
       height="576.74463"
       width="577.10175"
       id="rect2390"
       style="opacity:1;fill:none;fill-opacity:1;stroke:none;stroke-width:1;stroke-linecap:round;stroke-linejoin:miter;stroke-miterlimit:4;stroke-dasharray:none;stroke-dashoffset:0;stroke-opacity:1"
       inkscape:export-filename="P:\TELMA.V20\telma.v20_10_11\Projects\Interfaces\BaseInterface\Telbase\TelBasePanel\images\Build.png"
       inkscape:export-xdpi="4.9904542"
       inkscape:export-ydpi="4.9904542" />
    <rect
       style="opacity:1;fill:none;fill-opacity:1;stroke:none;stroke-width:23.16965866000000000;stroke-linecap:round;stroke-linejoin:miter;stroke-miterlimit:4;stroke-dasharray:none;stroke-dashoffset:0;stroke-opacity:1"
       id="rect5264"
       width="577.10175"
       height="576.74463"
       x="11.581718"
       y="11.612374"
       rx="90"
       ry="90"
       inkscape:export-filename="D:\Documents and Settings\Маша\Рабочий стол\TELMA.V20\Projects\Interfaces\Telbase\TelBasePanel\images\Build.png"
       inkscape:export-xdpi="4.7978296"
       inkscape:export-ydpi="4.7978296" />
  </g>
  <g
     inkscape:groupmode="layer"
     id="layer2"
     inkscape:label="Линия">
    <path
       style="fill:none;fill-rule:evenodd;stroke:#000000;stroke-width:10;stroke-linecap:butt;stroke-linejoin:miter;stroke-opacity:1;stroke-miterlimit:4;stroke-dasharray:none"
       d="M 222.85714,230.24511 L 191.92898,579.79695 L 277.79195,577.77664 L 245.46707,230.28417 L 277.79195,182.807 L 233.34524,134.31968 L 191.92898,183.81715 L 222.85714,230.24511 z"
       id="path6262"
       sodipodi:nodetypes="cccccccc" />
    <path
       style="fill:none;fill-rule:evenodd;stroke:#000000;stroke-width:8;stroke-linecap:butt;stroke-linejoin:miter;stroke-opacity:1;stroke-miterlimit:4;stroke-dasharray:none"
       d="M 252.53813,155.53288 L 528.30978,158.56334 L 559.62451,171.69532 L 532.35039,183.81716 L 266.17519,201.9999 L 276.78179,182.807 L 252.53813,155.53288 z"
       id="path6266"
       sodipodi:nodetypes="ccccccc" />
    <path
       style="fill:#7f8eb7;fill-rule:evenodd;stroke:#000000;stroke-width:8;stroke-linecap:butt;stroke-linejoin:miter;stroke-opacity:1;stroke-miterlimit:4;stroke-dasharray:none;fill-opacity:0.48275861"
       d="M 213.14219,158.56334 L 69.700525,158.56334 L 70.710678,247.45676 L 164.65486,246.44661 L 163.64471,189.87807 L 189.90867,184.32223 L 213.14219,158.56334 z"
       id="path6268"
       sodipodi:nodetypes="ccccccc" />
    <path
       style="fill:none;fill-rule:evenodd;stroke:#000000;stroke-width:10;stroke-linecap:butt;stroke-linejoin:bevel;stroke-opacity:1;stroke-miterlimit:4;stroke-dasharray:none"
       d="M 245.46707,237.35524 L 219.20311,279.27657 L 251.52798,313.62176 L 212.63711,366.14969 L 261.62951,397.96949 L 204.05081,448.47712 L 270.72088,489.89337 L 195.96959,538.3807 L 276.78179,573.73603"
       id="path6270"
       sodipodi:nodetypes="ccccccccc" />
    <path
       style="fill:none;fill-rule:evenodd;stroke:#000000;stroke-width:8;stroke-linecap:butt;stroke-linejoin:bevel;stroke-opacity:1;stroke-miterlimit:4;stroke-dasharray:none"
       d="M 276.78179,180.7867 L 295.97469,156.54304 L 334.36049,196.94914 L 362.64476,156.54304 L 400.0204,191.89838 L 422.24376,158.56334 L 454.56864,187.85777 L 476.792,159.57349 L 499.01535,184.82731 L 522.24886,158.56334"
       id="path6272" />
    <path
       style="fill:none;fill-rule:evenodd;stroke:#000000;stroke-width:8;stroke-linecap:butt;stroke-linejoin:bevel;stroke-opacity:1;stroke-miterlimit:4;stroke-dasharray:none"
       d="M 194.95944,183.81716 L 170.71578,158.56334 L 161.62441,189.87807 L 163.64471,189.87807"
       id="path6274" />
    <path
       style="fill:#ffffff;fill-rule:evenodd;stroke:#000000;stroke-width:1;stroke-linecap:butt;stroke-linejoin:miter;stroke-opacity:1;stroke-miterlimit:4;stroke-dasharray:none;fill-opacity:1"
       d="M 233.24757,134.62302 L 230.50536,40.177294 L 230.26313,43.843754 L 167.63958,44.577046 C 167.63958,44.577046 165.91133,44.398475 161.5558,46.776923 C 156.70534,49.425637 160.54183,48.976799 155.47201,50.443383 C 150.40219,51.909968 150.40219,51.909968 138.23463,51.909968 C 126.06706,51.909968 129.10894,51.909968 129.10894,51.909968 L 128.50959,65.109226 L 155.0574,64.375932 C 155.0574,64.375932 157.65468,63.898622 162.99054,60.775993 C 166.39577,58.783201 170.56655,56.987983 174.38637,56.752392 C 179.90242,56.412185 184.87697,56.676366 189.9468,56.30972 C 195.01661,55.943074 231.51932,55.943074 231.51932,55.943074 L 233.24757,134.62302 z"
       id="path6276"
       sodipodi:nodetypes="ccccssscccssscc" />
    <path
       sodipodi:nodetypes="ccccssscccssscc"
       id="path3847"
       d="M 233.60472,134.62302 L 231.21965,52.320151 L 231.33456,56.165182 L 170.6753,56.719903 C 170.6753,56.719903 166.98277,58.327046 163.52009,60.16978 C 158.64138,62.766086 161.61326,61.833942 156.54344,63.300526 C 151.47362,64.767111 150.93791,65.302825 138.77035,65.302825 C 126.60278,65.302825 129.10894,66.017111 129.10894,66.017111 L 129.22388,77.252083 L 157.37883,75.983075 C 157.37883,75.983075 159.02476,74.131404 164.95484,72.383135 C 170.50291,70.747486 170.20941,69.130839 175.81495,68.895249 C 181.3366,68.663185 185.59126,68.819223 190.66109,68.452577 C 195.7309,68.085931 232.23361,68.085931 232.23361,68.085931 L 233.60472,134.62302 z"
       style="fill:url(#linearGradient4388);fill-rule:evenodd;stroke:#000000;stroke-width:1;stroke-linecap:butt;stroke-linejoin:miter;stroke-opacity:1;stroke-miterlimit:4;stroke-dasharray:none;fill-opacity:1" />
    <path
       style="fill:url(#linearGradient4380);fill-rule:evenodd;stroke:#000000;stroke-width:1;stroke-linecap:butt;stroke-linejoin:miter;stroke-opacity:1;stroke-miterlimit:4;stroke-dasharray:none;fill-opacity:1"
       d="M 233.60471,134.44445 L 231.57679,64.463008 L 232.04885,67.772325 L 172.81815,69.041332 C 172.81815,69.041332 169.12562,70.648474 164.0558,72.848351 C 158.98597,75.048227 161.9704,74.15537 156.90058,75.621954 C 151.83076,77.088539 153.79505,76.195682 139.48463,76.909968 C 127.33219,77.516541 129.10894,77.802825 129.10894,77.802825 L 129.58102,89.39494 L 157.5574,88.661646 C 157.5574,88.661646 159.58534,88.661646 165.66912,87.561707 C 171.75291,86.461772 171.28083,84.309411 176.35066,82.109535 C 181.42047,79.909658 185.9484,80.96208 191.01823,80.595434 C 196.08804,80.228788 232.59075,80.228788 232.59075,80.228788 L 233.60471,134.44445 z"
       id="path3849"
       sodipodi:nodetypes="ccccssscccssscc" />
    <path
       sodipodi:type="star"
       style="opacity:1;fill:url(#linearGradient4372);fill-opacity:1;stroke:#000000;stroke-width:7.87455060000000007;stroke-linecap:round;stroke-linejoin:bevel;stroke-miterlimit:4;stroke-dasharray:none;stroke-dashoffset:0;stroke-opacity:1"
       id="path3851"
       sodipodi:sides="3"
       sodipodi:cx="456.42856"
       sodipodi:cy="306.42856"
       sodipodi:r1="56.433094"
       sodipodi:r2="28.775095"
       sodipodi:arg1="1.5581387"
       sodipodi:arg2="2.6848542"
       inkscape:flatsided="false"
       inkscape:rounded="0"
       inkscape:randomized="0"
       d="M 457.14285,362.85713 L 430.60303,319.11904 L 407.20284,278.83286 L 458.35104,277.71776 L 504.93999,277.59568 L 480.3316,322.44888 L 457.14285,362.85713 z"
       transform="matrix(1.4428707,0,0,0.9053282,-188.66488,95.616628)" />
    <path
       style="fill:none;fill-rule:evenodd;stroke:#000000;stroke-width:6;stroke-linecap:butt;stroke-linejoin:miter;stroke-opacity:1;stroke-miterlimit:4;stroke-dasharray:none"
       d="M 400.02041,347.46187 L 464.67017,242.406 L 539.42146,346.95679"
       id="path4362" />
    <path
       style="fill:none;fill-rule:evenodd;stroke:#000000;stroke-width:6;stroke-linecap:butt;stroke-linejoin:miter;stroke-opacity:1;stroke-miterlimit:4;stroke-dasharray:none"
       d="M 464.67017,241.39585 L 464.67017,187.85776"
       id="path4364" />
  </g>
  <g
     inkscape:groupmode="layer"
     id="layer4"
     inkscape:label="Strelki" />
  <g
     inkscape:groupmode="layer"
     id="layer3"
     inkscape:label="Узел" />
</svg>

<svg xmlns="http://www.w3.org/2000/svg" width="600" height="600" xmlns:v="https://vecta.io/nano"><defs><linearGradient id="A" x1="480.977" y1="320.226" x2="420.665" y2="320.226" gradientUnits="userSpaceOnUse"><stop offset="0" stop-color="#7f8eb7"/><stop offset="1" stop-color="#7f8eb7" stop-opacity="0"/></linearGradient><linearGradient id="B" x1="234.105" y1="93.739" x2="128.518" y2="95.882" gradientUnits="userSpaceOnUse"><stop offset="0" stop-color="#ff002d"/><stop offset="1" stop-color="#ff002d" stop-opacity="0"/></linearGradient><linearGradient id="C" x1="234.105" y1="103.472" x2="128.396" y2="104.186" gradientUnits="userSpaceOnUse"><stop offset="0" stop-color="#00b1ff"/><stop offset="1" stop-color="#00b1ff" stop-opacity="0"/></linearGradient></defs><g fill="none" stroke="#000"><path d="M222.857 230.245l-30.928 349.552 85.863-2.02-32.325-347.492 32.325-47.477-44.447-48.487-41.416 49.497 30.928 46.428z" stroke-width="10"/><path d="M252.538 155.533l275.772 3.03 31.315 13.132-27.274 12.122L266.175 202l10.607-19.193-24.244-27.274z" stroke-width="8"/></g><path d="M213.142 158.563H69.701l1.01 88.893 93.944-1.01-1.01-56.569 26.264-5.556 23.234-25.759z" fill="#7f8eb7" fill-rule="evenodd" stroke="#000" stroke-width="8" fill-opacity=".483"/><g fill="none" stroke-linejoin="bevel"><path d="M245.467 237.355l-26.264 41.921 32.325 34.345-38.891 52.528 48.992 31.82-57.579 50.508 66.67 41.416-74.751 48.487 80.812 35.355" stroke="#000" stroke-width="10"/><path d="M276.782 180.787l19.193-24.244 38.386 40.406 28.284-40.406 37.376 35.355 22.223-33.335 32.325 29.294 22.223-28.284 22.223 25.254 23.234-26.264m-327.29 25.254l-24.244-25.254-9.091 31.315h2.02" stroke="#000" stroke-width="8"/></g><g fill-rule="evenodd"><path d="M233.248 134.623l-2.742-94.446-.242 3.666-62.624.733s-1.728-.179-6.084 2.2c-4.85 2.649-1.014 2.2-6.084 3.666s-5.07 1.467-17.237 1.467h-9.126l-.599 13.199 26.548-.733s2.597-.477 7.933-3.6c3.405-1.993 7.576-3.788 11.396-4.024 5.516-.34 10.491-.076 15.56-.443s41.573-.367 41.573-.367l1.728 78.68z" fill="#fff" stroke="#000"/><path d="M233.605 134.623L231.22 52.32l.115 3.845-60.659.555-7.155 3.45c-4.879 2.596-1.907 1.664-6.977 3.131s-5.606 2.002-17.773 2.002-9.661.714-9.661.714l.115 11.235 28.155-1.269s1.646-1.852 7.576-3.6c5.548-1.636 5.255-3.252 10.86-3.488 5.522-.232 9.776-.076 14.846-.443s41.573-.367 41.573-.367l1.371 66.537z" fill="url(#C)" stroke="#000"/><path d="M233.605 134.444l-2.028-69.981.472 3.309-59.231 1.269-8.762 3.807c-5.07 2.2-2.085 1.307-7.155 2.774s-3.106.574-17.416 1.288c-12.152.607-10.376.893-10.376.893l.472 11.592 27.976-.733s2.028 0 8.112-1.1 5.612-3.252 10.682-5.452 9.598-1.147 14.668-1.514 41.573-.367 41.573-.367l1.014 54.216z" fill="url(#B)" stroke="#000"/></g><path d="M457.143 362.857l-26.54-43.738-23.4-40.286 51.148-1.115 46.589-.122-24.608 44.853-23.189 40.408z" transform="matrix(1.442871 0 0 .905328 -188.66488 95.616628)" fill="url(#A)" stroke="#000" stroke-width="7.875" stroke-linejoin="bevel"/><path d="M400.02 347.462l64.65-105.056 74.751 104.551M464.67 241.396v-53.538" stroke="#000" fill="none" stroke-width="6"/></svg>
